assets/img/icon-people.svg

<svg width="218" height="118" viewBox="0 0 218 118" fill="none" xmlns="http://www.w3.org/2000/svg">
<path d="M0 0H218V118H0V0Z" fill="#F6F6F6"/>
<mask id="mask0_5151_8852" style="mask-type:alpha" maskUnits="userSpaceOnUse" x="64" y="14" width="89" height="89">
<rect x="64" y="14" width="89" height="89" fill="#D9D9D9"/>
</mask>
<g mask="url(#mask0_5151_8852)">
<path d="M67.7083 80.75C66.6576 80.75 65.7769 80.3946 65.0661 79.6839C64.3554 78.9731 64 78.0924 64 77.0417V74.9094C64 72.2517 65.3597 70.0885 68.0792 68.4198C70.7986 66.751 74.3833 65.9167 78.8333 65.9167C79.6368 65.9167 80.4094 65.9321 81.151 65.963C81.8927 65.9939 82.6035 66.0712 83.2833 66.1948C82.4181 67.4927 81.7691 68.8524 81.3365 70.274C80.9038 71.6955 80.6875 73.1788 80.6875 74.724V80.75H67.7083ZM89.9583 80.75C88.9076 80.75 88.0269 80.3946 87.3161 79.6839C86.6054 78.9731 86.25 78.0924 86.25 77.0417V74.724C86.25 72.7462 86.7908 70.9384 87.8724 69.3005C88.954 67.6627 90.4837 66.2257 92.4615 64.9896C94.4392 63.7535 96.8033 62.8264 99.5536 62.2083C102.304 61.5903 105.286 61.2812 108.5 61.2812C111.776 61.2812 114.789 61.5903 117.539 62.2083C120.289 62.8264 122.653 63.7535 124.631 64.9896C126.609 66.2257 128.123 67.6627 129.174 69.3005C130.225 70.9384 130.75 72.7462 130.75 74.724V77.0417C130.75 78.0924 130.395 78.9731 129.684 79.6839C128.973 80.3946 128.092 80.75 127.042 80.75H89.9583ZM136.312 80.75V74.724C136.312 73.117 136.112 71.6028 135.71 70.1813C135.308 68.7597 134.706 67.4309 133.902 66.1948C134.582 66.0712 135.277 65.9939 135.988 65.963C136.699 65.9321 137.425 65.9167 138.167 65.9167C142.617 65.9167 146.201 66.7356 148.921 68.3734C151.64 70.0113 153 72.1899 153 74.9094V77.0417C153 78.0924 152.645 78.9731 151.934 79.6839C151.223 80.3946 150.342 80.75 149.292 80.75H136.312ZM94.1302 73.3333H122.963C122.344 72.0972 120.629 71.0156 117.817 70.0885C115.005 69.1615 111.899 68.6979 108.5 68.6979C105.101 68.6979 101.995 69.1615 99.1828 70.0885C96.3707 71.0156 94.6865 72.0972 94.1302 73.3333ZM78.8333 62.2083C76.7937 62.2083 75.0477 61.4821 73.5953 60.0297C72.1429 58.5773 71.4167 56.8312 71.4167 54.7917C71.4167 52.6903 72.1429 50.9288 73.5953 49.5073C75.0477 48.0858 76.7937 47.375 78.8333 47.375C80.9347 47.375 82.6962 48.0858 84.1177 49.5073C85.5392 50.9288 86.25 52.6903 86.25 54.7917C86.25 56.8312 85.5392 58.5773 84.1177 60.0297C82.6962 61.4821 80.9347 62.2083 78.8333 62.2083ZM138.167 62.2083C136.127 62.2083 134.381 61.4821 132.929 60.0297C131.476 58.5773 130.75 56.8312 130.75 54.7917C130.75 52.6903 131.476 50.9288 132.929 49.5073C134.381 48.0858 136.127 47.375 138.167 47.375C140.268 47.375 142.03 48.0858 143.451 49.5073C144.873 50.9288 145.583 52.6903 145.583 54.7917C145.583 56.8312 144.873 58.5773 143.451 60.0297C142.03 61.4821 140.268 62.2083 138.167 62.2083ZM108.5 58.5C105.41 58.5 102.783 57.4184 100.62 55.2552C98.4566 53.092 97.375 50.4653 97.375 47.375C97.375 44.2229 98.4566 41.5807 100.62 39.4484C102.783 37.3161 105.41 36.25 108.5 36.25C111.652 36.25 114.294 37.3161 116.427 39.4484C118.559 41.5807 119.625 44.2229 119.625 47.375C119.625 50.4653 118.559 53.092 116.427 55.2552C114.294 57.4184 111.652 58.5 108.5 58.5ZM108.5 51.0833C109.551 51.0833 110.431 50.728 111.142 50.0172C111.853 49.3064 112.208 48.4257 112.208 47.375C112.208 46.3243 111.853 45.4436 111.142 44.7328C110.431 44.022 109.551 43.6667 108.5 43.6667C107.449 43.6667 106.569 44.022 105.858 44.7328C105.147 45.4436 104.792 46.3243 104.792 47.375C104.792 48.4257 105.147 49.3064 105.858 50.0172C106.569 50.728 107.449 51.0833 108.5 51.0833Z" fill="#154973"/>
</g>
</svg>

<svg xmlns="http://www.w3.org/2000/svg" width="218" height="118" fill="none" viewBox="0 0 218 118"><path fill="#f6f6f6" d="M0 0h218v118H0z"/><mask id="a" width="89" height="89" x="64" y="14" maskUnits="userSpaceOnUse" style="mask-type:alpha"><path fill="#d9d9d9" d="M64 14h89v89H64z"/></mask><g mask="url(#a)"><path fill="#154973" d="M67.708 80.75q-1.575 0-2.642-1.066-1.065-1.066-1.066-2.642v-2.133q0-3.985 4.08-6.49 4.078-2.502 10.753-2.502 1.206 0 2.318.046t2.132.232a15.4 15.4 0 0 0-1.947 4.079 15.2 15.2 0 0 0-.648 4.45v6.026zm22.25 0q-1.575 0-2.642-1.066-1.065-1.066-1.066-2.642v-2.318q0-2.967 1.622-5.424 1.623-2.456 4.59-4.31 2.966-1.855 7.092-2.782t8.946-.927q4.914 0 9.039.927 4.125.928 7.092 2.782t4.543 4.31 1.576 5.424v2.318q0 1.575-1.066 2.642t-2.642 1.066zm46.354 0v-6.026q0-2.41-.602-4.543a14.5 14.5 0 0 0-1.808-3.986q1.02-.186 2.086-.232t2.179-.046q6.674 0 10.754 2.456T153 74.91v2.133q0 1.575-1.066 2.642t-2.642 1.066zM94.13 73.333h28.833q-.928-1.853-5.146-3.245-4.218-1.39-9.317-1.39t-9.317 1.39-5.053 3.245M78.833 62.208q-3.06 0-5.238-2.178-2.178-2.18-2.178-5.238 0-3.152 2.178-5.285 2.18-2.132 5.238-2.132 3.153 0 5.285 2.132t2.132 5.285q0 3.06-2.132 5.238t-5.285 2.178m59.334 0q-3.06 0-5.238-2.178-2.18-2.18-2.179-5.238 0-3.152 2.179-5.285t5.238-2.132q3.152 0 5.284 2.132 2.133 2.132 2.132 5.285 0 3.06-2.132 5.238t-5.284 2.178M108.5 58.5q-4.635 0-7.88-3.245t-3.245-7.88q0-4.728 3.245-7.927t7.88-3.198q4.728 0 7.927 3.198 3.198 3.2 3.198 7.927 0 4.635-3.198 7.88-3.2 3.245-7.927 3.245m0-7.417q1.576 0 2.642-1.066 1.066-1.065 1.066-2.642 0-1.575-1.066-2.642t-2.642-1.066q-1.576 0-2.642 1.066-1.066 1.065-1.066 2.642 0 1.575 1.066 2.642t2.642 1.066"/></g></svg>
